!!!COM: Bach, Johann Sebastian
!!!OPR: Joh. Seb. Bachs vierstimmige Choralgesänge
!!!XEN: Four-part Chorales
!!!OTL: 161. Uns ist ein Kindlein heut' gebor'n
!!!SCT: BWV 414
!!!SCA: Thematisch-systematisches Verzeichnis der musikalischen Werke Johann Sebastian Bach: Bach-Werke-Verzeichnis (Schmieder)
!!!YOR: Bach Gesellschaft Edition xxxix
!!!ENC: Steven Rasmussen
!!!CDT: 1685/3//-1750/7/28/
!!!OCY: Deutschland
!!!YEC: Copyright (c) 1994, 2000 Center for Computer Assisted Research in the Humanities
!!!YEM: Rights to all derivative editions reserved
!!!YEN: United States of America
**kern	**kern	**kern	**kern	**silbe
*I:[BASSO]	*I:[TENORE]	*I:[ALTO]	*I:[SOPRANO]	*I:[SOPRANO]
*>[A,A,B]	*>[A,A,B]	*>[A,A,B]	*>[A,A,B]	*
*>A	*>A	*>A	*>A	*
*clefF4	*clefGv2	*clefG2	*clefG2	*
*k[f#]	*k[f#]	*k[f#]	*k[f#]	*
*G:	*G:	*G:	*G:	*
*M4/4	*M4/4	*M4/4	*M4/4	*
4GG	4d	4g	4b	Unsdes
=1	=1	=1	=1	=1
4G	4d	4g	8bL	istfreu-
.	.	.	8ccJ	.
4F#	4d	4a	4dd	ein-en
4G	4d	4g	4b	Kind-sich
4E	8dL	4g	4g	-leindie
.	8cJ	.	.	.
=2	=2	=2	=2	=2
4Fn	4c	8fnL	4a	heut'En-
.	.	8eJ	.	.
4G	4G	4d	4b	ge--ge-
4C;	4G;	4e;	4cc;	-bor'n-lein,
4GG	4G	4d	4b	vonsoll-
=3	=3	=3	=3	=3
4D	4F#	8dL	4a	ei--ten
.	.	8cJ	.	.
8EL	4G	4B	4g	-nerwir
8DJ	.	.	.	.
8CL	2c	2e	4.g	Jung-Men-
8D	.	.	.	.
8E	.	.	.	.
8F#J	.	.	8a	.
=4	=4	=4	=4	=4
4G	8BL	4d	4b	|-schen
.	8AJ	.	.	.
8BBL	4G	4d	4b	-fraunicht
8CJ	.	.	.	.
4D	4G	4d	8aL	aus-frÃ¶h-
.	.	.	8gJ	.
4D	4F#	8dL	4a	-er--lich
.	.	8cJ	.	.
=5	=5	=5	=5	=5
2.GG;	2.D;	2.B;	2.g;	-kor'n,sein?
=:|!	=:|!	=:|!	=:|!	=:|!
*>B	*>B	*>B	*>B	*
4GG	4d	4g	4b	Lob,
=6	=6	=6	=6	=6
4D	8dL	4f#	4a	Preis
.	8cJ	.	.	.
4D#	4B	4f#	4b	und
4E	4B	8eL	4g	Dank
.	.	8dJ	.	.
8AL	4A	4c#	4e	sei
8GJ	.	.	.	.
=7	=7	=7	=7	=7
4F#	4A	4.d	4f#	Gott
4E	4G	.	4g	be-
.	.	8c#	.	.
4D;	4F#;	4d;	4a;	-reit't
4BB	4F#	4d#	4b	fÃ¼r
=8	=8	=8	=8	=8
8EL	4G	4B	4g	sol-
8DJ	.	.	.	.
8EL	4c	4e	4g	-che
8F#J	.	.	.	.
8GL	8BL	4d	4.g	Gnad'
8A	8c	.	.	.
8G	8B	8eL	.	.
8F#J	8AJ	8f#J	8a	.
=9	=9	=9	=9	=9
4E	4G	4g	4b	.
8BBL	4G	4d	4b	in
8CJ	.	.	.	.
4D	4G	4d	8aL	E-
.	.	.	8gJ	.
4D	4F#	8dL	4a	-wig-
.	.	8cJ	.	.
=10	=10	=10	=10	=10
2.GG;/xx	2.D;/xx	2.B;/xx	2.g;/xx	-keit.
==|!	==|!	==|!	==|!	==|!
*-	*-	*-	*-	*-
!!!RWG: Key is interpreted using the Humdrum key tool.
!!!URL-pdf: https://s9.imslp.org/files/imglnks/usimg/6/6b/IMSLP24489-PMLP09471-CCARH_Bach_Chorales.pdf#page=112 Musedata edition
!!!URL-pdf: https://s9.imslp.org/files/imglnks/usimg/7/7a/IMSLP04155-Bach_-_BGA_253-438.pdf#page=88 	Bach-Gesellschaft Ausgabe, Band 39 (pp.175-276) Leipzig: Breitkopf und Härtel, 1892. Plate B.W. XXXIX.
!!!END: 1994/08/03
!!!EMD: Converted from MuseData to Humdrum Dec 19, 2000, by Andreas Kornstaedt using muse2kern.
!!!EED: Craig Stuart Sapp
!!!EEV: 2024/03/31
!!!filter-keyboard: satb2gs
!!!title: @{OTL} (@{SCT})
